!!!OTL: 96g. Der verwundete Knabe.
!!!ARE: Europa, Mitteleuropa, Deutschland, Lahngegend; Dillkreis
!!!SCT: E0096F
!!!TXL: @@DE
!!!YEM: Copyright 1995, estate of Helmut Schaffrath.
**kern	**text
*ICvox	*
*M3/4	*
*k[f#]	*
*G:	*
!LO:TX:a:t=Etwas langam.	!
!LO:TX:a:t=Aus der Lahngegend und dem Dillkreis.	!
{4d	Es
=1	=1
4g	woll-
8bL	-te
8aJ	.
4g	ein
=2	=2
4.a	Mäd-
8b	-chen
8ccL}	wohl
{8eeJ	.
=3	=3
(4.dd	früh
8cc)	.
4b/	auf-
=4	=4
2a}	-ſtehn,
{4d	Es
=5	=5
4g	woll-
8bL	-te
8aJ	.
4g	ein
=6	=6
4.a	Mäd-
8b	-chen
8ccL}	wohl
{8eeJ	.
=7	=7
(4.dd	früh
8cc)	.
4b	auf-
=8	=8
2a	-ſtehn,
4r}	.
=9	=9
{4dd	wollt
4dd	durch
8ddL	den
8ccJ	.
=10	=10
(4.b	grü-
8cc)	-nen
4dd}	Wald,
=11	=11
{8eeL	wollt
8ddJ	.
4cc	durch
4b/	den
=12	=12
4.a	grü-
8b	-nen
(8ccL}	Wald
{8eeJ)	.
=13	=13
8ddL	ſpa-
8ccJ	.
4b/	-ʒie-
4a	-ren
=14	=14
2g	gehn.
4r}	.
=15	=15
{4dd	wollt
4dd	durch
8ddL	den
8ccJ	.
=16	=16
(4.b	grü-
8cc)	-nen
4dd}	Wald,
=17	=17
{8eeL	wollt
8ddJ	.
4cc	durch
4b/	den
=18	=18
4.a	grü-
8b	-nen
(8ccL}	Wald
{8eeJ)	.
=19	=19
8ddL	ſpa-
8ccJ	.
4b/	-ʒie-
4a	-ren
=20	=20
2g}	gehn.
==	==
!!!AGN: erzaehlendes Volks - Lied, Sage, Liebe, Leid, Tod, Ballade ?
!!!ONB: ESAC (Essen Associative Code) Database: ERK1
!!!AMT: simple triple
!!!AIN: vox
!!!EED: Helmut Schaffrath
!!!EEV: 1.0
!!!GTL: Liebesgeschichten mit tragischem Schluss
!!!URL-scan: https://rosdok.uni-rostock.de/mcrviewer/recordIdentifier/rosdok_ppn745146120/iview2/phys_0411.iview2?x=-422.27491384562836&y=163.95080619794317&scale=0.554360769283424&rotation=0&layout=singlePageLayout
!!!ENC: Anna Maria Matuszewska
!!!EEV: 2024/11/29
*-	*-
